X: 7464
T: Cnoc Na gClarac
R: slide
M: 12/8
K: Amixolydian
|:e3 e2 e d2 f e2 d|c2 A B2 A a3 a2 g|
efe efe d2 f e2 d|c2 A B2 ^G A3 A3:|
e2 a a2 g e2 d Bcd|e2 a a2 g e2 g d2 f|
e2 a a2 g e3 efe|d2 d e2 f g3 f2 g:|

